icons/smiley-16.svg

<svg width="16" height="16" viewBox="0 0 16 16" xmlns="http://www.w3.org/2000/svg">
  <path fill-rule="evenodd" clip-rule="evenodd" d="M1.5 8C1.5 6.27609 2.18482 4.62279 3.40381 3.40381C4.62279 2.18482 6.27609 1.5 8 1.5C9.72391 1.5 11.3772 2.18482 12.5962 3.40381C13.8152 4.62279 14.5 6.27609 14.5 8C14.5 9.72391 13.8152 11.3772 12.5962 12.5962C11.3772 13.8152 9.72391 14.5 8 14.5C6.27609 14.5 4.62279 13.8152 3.40381 12.5962C2.18482 11.3772 1.5 9.72391 1.5 8ZM8 0C5.87827 0 3.84344 0.842855 2.34315 2.34315C0.842855 3.84344 0 5.87827 0 8C0 10.1217 0.842855 12.1566 2.34315 13.6569C3.84344 15.1571 5.87827 16 8 16C10.1217 16 12.1566 15.1571 13.6569 13.6569C15.1571 12.1566 16 10.1217 16 8C16 5.87827 15.1571 3.84344 13.6569 2.34315C12.1566 0.842855 10.1217 0 8 0V0ZM5 8C5.26522 8 5.51957 7.89464 5.70711 7.70711C5.89464 7.51957 6 7.26522 6 7C6 6.73478 5.89464 6.48043 5.70711 6.29289C5.51957 6.10536 5.26522 6 5 6C4.73478 6 4.48043 6.10536 4.29289 6.29289C4.10536 6.48043 4 6.73478 4 7C4 7.26522 4.10536 7.51957 4.29289 7.70711C4.48043 7.89464 4.73478 8 5 8ZM12 7C12 7.26522 11.8946 7.51957 11.7071 7.70711C11.5196 7.89464 11.2652 8 11 8C10.7348 8 10.4804 7.89464 10.2929 7.70711C10.1054 7.51957 10 7.26522 10 7C10 6.73478 10.1054 6.48043 10.2929 6.29289C10.4804 6.10536 10.7348 6 11 6C11.2652 6 11.5196 6.10536 11.7071 6.29289C11.8946 6.48043 12 6.73478 12 7ZM5.32 9.636C5.48134 9.52303 5.68064 9.47806 5.87486 9.51081C6.06908 9.54355 6.24262 9.65138 6.358 9.811L6.365 9.82C6.46785 9.93795 6.58549 10.0421 6.715 10.13C6.979 10.308 7.398 10.5 8 10.5C8.602 10.5 9.02 10.308 9.285 10.129C9.41451 10.0411 9.53215 9.93695 9.635 9.819L9.642 9.811C9.75737 9.64895 9.93239 9.53937 10.1285 9.50637C10.3247 9.47336 10.526 9.51963 10.688 9.635C10.85 9.75037 10.9596 9.92539 10.9926 10.1215C11.0256 10.3177 10.9794 10.519 10.864 10.681L10.25 10.25C10.864 10.68 10.864 10.681 10.863 10.681V10.682L10.862 10.684L10.86 10.687L10.855 10.694L10.841 10.713C10.7848 10.7883 10.7233 10.8594 10.657 10.926C10.4963 11.0924 10.3187 11.2415 10.127 11.371C9.49722 11.7894 8.75607 12.0086 8 12C7.054 12 6.348 11.692 5.874 11.37C5.62319 11.2003 5.39676 10.9971 5.201 10.766C5.1867 10.7486 5.1727 10.7309 5.159 10.713L5.145 10.693L5.14 10.687L5.138 10.684V10.682H5.137L5.75 10.25L5.136 10.68C5.02196 10.5172 4.97718 10.3159 5.01149 10.1201C5.04581 9.92439 5.1564 9.75027 5.319 9.636H5.32Z"/>
</svg>

<svg xmlns="http://www.w3.org/2000/svg" width="16" height="16" viewBox="0 0 16 16"><path fill-rule="evenodd" d="M1.5 8a6.5 6.5 0 1113 0 6.5 6.5 0 01-13 0zM8 0a8 8 0 100 16A8 8 0 008 0zM5 8a1 1 0 100-2 1 1 0 000 2zm7-1a1 1 0 11-2 0 1 1 0 012 0zM5.32 9.636a.75.75 0 011.038.175l.007.009c.103.118.22.222.35.31.264.178.683.37 1.285.37.602 0 1.02-.192 1.285-.371.13-.088.247-.192.35-.31l.007-.008a.75.75 0 111.222.87l-.614-.431c.614.43.614.431.613.431v.001l-.001.002-.002.003-.005.007-.014.019a1.984 1.984 0 01-.184.213c-.16.166-.338.316-.53.445-.63.418-1.37.638-2.127.629-.946 0-1.652-.308-2.126-.63a3.32 3.32 0 01-.715-.657l-.014-.02-.005-.006-.002-.003v-.002h-.001l.613-.432-.614.43a.75.75 0 01.183-1.044h.001z"/></svg>
